images/aKNC.svg

<svg height="250" viewBox="0 0 250 250" width="250" xmlns="http://www.w3.org/2000/svg" xmlns:xlink="http://www.w3.org/1999/xlink"><linearGradient id="a" gradientUnits="userSpaceOnUse" x1="210.75" x2="51.5" y1="33.75" y2="221.5"><stop offset="0" stop-color="#b6509e"/><stop offset="1" stop-color="#2ebac6"/></linearGradient><path d="m250 125c0 69.035156-55.964844 125-125 125s-125-55.964844-125-125 55.964844-125 125-125 125 55.964844 125 125zm0 0" fill="#fff"/><path d="m125 250c-8.460938.003906-16.902344-.847656-25.195312-2.539062-15.988282-3.273438-31.175782-9.667969-44.699219-18.808594-20.09375-13.566406-35.828125-32.671875-45.285157-54.996094-3.195312-7.5625-5.632812-15.417969-7.28125-23.460938-3.386718-16.625-3.386718-33.761718 0-50.382812 3.273438-15.988281 9.664063-31.179688 18.808594-44.699219 13.566406-20.097656 32.671875-35.828125 54.996094-45.289062 7.5625-3.199219 15.417969-5.636719 23.460938-7.285157 16.625-3.386718 33.761718-3.386718 50.382812 0 15.988281 3.273438 31.179688 9.664063 44.699219 18.808594 20.097656 13.566406 35.828125 32.671875 45.289062 54.996094 3.195313 7.5625 5.636719 15.417969 7.285157 23.460938 3.386718 16.625 3.386718 33.761718 0 50.382812-3.273438 15.992188-9.664063 31.179688-18.808594 44.699219-13.566406 20.09375-32.671875 35.828125-54.996094 45.285156-7.5625 3.199219-15.417969 5.640625-23.460938 7.289063-8.292968 1.691406-16.734374 2.542968-25.195312 2.539062zm0-236.609375c-7.554688 0-15.089844.757813-22.492188 2.269531-14.277343 2.921875-27.839843 8.628906-39.910156 16.792969-17.941406 12.113281-31.984375 29.171875-40.429687 49.105469-2.855469 6.75-5.03125 13.769531-6.503907 20.949218-3.023437 14.839844-3.023437 30.140626 0 44.984376 2.925782 14.277343 8.632813 27.835937 16.796876 39.90625 12.113281 17.945312 29.171874 31.992187 49.105468 40.4375 6.75 2.855468 13.769532 5.03125 20.949219 6.503906 14.84375 3.023437 30.144531 3.023437 44.984375 0 14.277344-2.925782 27.839844-8.632813 39.910156-16.796875 17.9375-12.113281 31.976563-29.171875 40.421875-49.101563 2.855469-6.75 5.03125-13.769531 6.503907-20.949218 3.023437-14.84375 3.023437-30.144532 0-44.984376-2.925782-14.277343-8.632813-27.835937-16.796876-39.90625-12.113281-17.941406-29.167968-31.988281-49.097656-40.433593-6.75-2.855469-13.769531-5.03125-20.949218-6.503907-7.402344-1.511718-14.9375-2.273437-22.492188-2.273437zm0 0" fill="url(#a)"/><g fill="#31cb9e"><path d="m114.859375 125.003906 71.582031 41.003906c1.171875.707032 2.632813.722657 3.820313.046876 1.1875-.675782 1.914062-1.941407 1.90625-3.308594v-75.539063c.015625-1.371093-.714844-2.640625-1.90625-3.3125-1.191407-.675781-2.65625-.644531-3.820313.078125zm0 0"/><path d="m184.929688 65.816406-48.9375-35.992187c-1.027344-.789063-2.382813-1.015625-3.613282-.601563-1.226562.414063-2.167968 1.410156-2.511718 2.664063l-17.871094 80.175781 72.503906-40.089844c1.117188-.578125 1.855469-1.699218 1.945312-2.957031.085938-1.253906-.488281-2.46875-1.515624-3.195313"/><path d="m135.933594 220.15625 48.996094-35.992188c1.042968-.734374 1.632812-1.960937 1.550781-3.234374-.082031-1.273438-.824219-2.414063-1.953125-3.007813l-72.53125-40.089844 17.871094 80.175781c.300781 1.265626 1.21875 2.296876 2.441406 2.738282 1.222656.445312 2.585937.246094 3.628906-.53125"/><path d="m96.246094 123.515625 18.613281-87.050781c.289063-1.476563-.34375-2.980469-1.601563-3.804688-1.257812-.824218-2.890624-.800781-4.125.054688l-47.675781 36.566406c-2.449219 1.878906-3.878906 4.789062-3.867187 7.875v92.773438c-.046875 3.125 1.386718 6.085937 3.863281 7.988281l47.449219 36.453125c1.234375.855468 2.867187.875 4.125.050781 1.257812-.824219 1.890625-2.328125 1.601562-3.800781zm0 0"/></g></svg>

<svg xmlns="http://www.w3.org/2000/svg" xmlns:xlink="http://www.w3.org/1999/xlink" width="250px" height="250px" viewBox="0 0 250 250" version="1.1">
<defs>
<linearGradient id="linear0" gradientUnits="userSpaceOnUse" x1="0.843" y1="0.135" x2="0.206" y2="0.886" gradientTransform="matrix(250,0,0,250,0,0)">
<stop offset="0" style="stop-color:rgb(71.372551%,31.37255%,61.960787%);stop-opacity:1;"/>
<stop offset="1" style="stop-color:rgb(18.039216%,72.941178%,77.64706%);stop-opacity:1;"/>
</linearGradient>
</defs>
<g id="surface1">
<path style=" stroke:none;fill-rule:nonzero;fill:rgb(100%,100%,100%);fill-opacity:1;" d="M 250 125 C 250 194.035156 194.035156 250 125 250 C 55.964844 250 0 194.035156 0 125 C 0 55.964844 55.964844 0 125 0 C 194.035156 0 250 55.964844 250 125 Z M 250 125 "/>
<path style=" stroke:none;fill-rule:nonzero;fill:url(#linear0);" d="M 125 250 C 116.539062 250.003906 108.097656 249.152344 99.804688 247.460938 C 83.816406 244.1875 68.628906 237.792969 55.105469 228.652344 C 35.011719 215.085938 19.277344 195.980469 9.820312 173.65625 C 6.625 166.09375 4.1875 158.238281 2.539062 150.195312 C -0.847656 133.570312 -0.847656 116.433594 2.539062 99.8125 C 5.8125 83.824219 12.203125 68.632812 21.347656 55.113281 C 34.914062 35.015625 54.019531 19.285156 76.34375 9.824219 C 83.90625 6.625 91.761719 4.1875 99.804688 2.539062 C 116.429688 -0.847656 133.566406 -0.847656 150.1875 2.539062 C 166.175781 5.8125 181.367188 12.203125 194.886719 21.347656 C 214.984375 34.914062 230.714844 54.019531 240.175781 76.34375 C 243.371094 83.90625 245.8125 91.761719 247.460938 99.804688 C 250.847656 116.429688 250.847656 133.566406 247.460938 150.1875 C 244.1875 166.179688 237.796875 181.367188 228.652344 194.886719 C 215.085938 214.980469 195.980469 230.714844 173.65625 240.171875 C 166.09375 243.371094 158.238281 245.8125 150.195312 247.460938 C 141.902344 249.152344 133.460938 250.003906 125 250 Z M 125 13.390625 C 117.445312 13.390625 109.910156 14.148438 102.507812 15.660156 C 88.230469 18.582031 74.667969 24.289062 62.597656 32.453125 C 44.65625 44.566406 30.613281 61.625 22.167969 81.558594 C 19.3125 88.308594 17.136719 95.328125 15.664062 102.507812 C 12.640625 117.347656 12.640625 132.648438 15.664062 147.492188 C 18.589844 161.769531 24.296875 175.328125 32.460938 187.398438 C 44.574219 205.34375 61.632812 219.390625 81.566406 227.835938 C 88.316406 230.691406 95.335938 232.867188 102.515625 234.339844 C 117.359375 237.363281 132.660156 237.363281 147.5 234.339844 C 161.777344 231.414062 175.339844 225.707031 187.410156 217.542969 C 205.347656 205.429688 219.386719 188.371094 227.832031 168.441406 C 230.6875 161.691406 232.863281 154.671875 234.335938 147.492188 C 237.359375 132.648438 237.359375 117.347656 234.335938 102.507812 C 231.410156 88.230469 225.703125 74.671875 217.539062 62.601562 C 205.425781 44.660156 188.371094 30.613281 168.441406 22.167969 C 161.691406 19.3125 154.671875 17.136719 147.492188 15.664062 C 140.089844 14.152344 132.554688 13.390625 125 13.390625 Z M 125 13.390625 "/>
<path style=" stroke:none;fill-rule:nonzero;fill:rgb(19.215687%,79.607844%,61.960787%);fill-opacity:1;" d="M 114.859375 125.003906 L 186.441406 166.007812 C 187.613281 166.714844 189.074219 166.730469 190.261719 166.054688 C 191.449219 165.378906 192.175781 164.113281 192.167969 162.746094 L 192.167969 87.207031 C 192.183594 85.835938 191.453125 84.566406 190.261719 83.894531 C 189.070312 83.21875 187.605469 83.25 186.441406 83.972656 Z M 114.859375 125.003906 "/>
<path style=" stroke:none;fill-rule:nonzero;fill:rgb(19.215687%,79.607844%,61.960787%);fill-opacity:1;" d="M 184.929688 65.816406 L 135.992188 29.824219 C 134.964844 29.035156 133.609375 28.808594 132.378906 29.222656 C 131.152344 29.636719 130.210938 30.632812 129.867188 31.886719 L 111.996094 112.0625 L 184.5 71.972656 C 185.617188 71.394531 186.355469 70.273438 186.445312 69.015625 C 186.53125 67.761719 185.957031 66.546875 184.929688 65.820312 "/>
<path style=" stroke:none;fill-rule:nonzero;fill:rgb(19.215687%,79.607844%,61.960787%);fill-opacity:1;" d="M 135.933594 220.15625 L 184.929688 184.164062 C 185.972656 183.429688 186.5625 182.203125 186.480469 180.929688 C 186.398438 179.65625 185.65625 178.515625 184.527344 177.921875 L 111.996094 137.832031 L 129.867188 218.007812 C 130.167969 219.273438 131.085938 220.304688 132.308594 220.746094 C 133.53125 221.191406 134.894531 220.992188 135.9375 220.214844 "/>
<path style=" stroke:none;fill-rule:nonzero;fill:rgb(19.215687%,79.607844%,61.960787%);fill-opacity:1;" d="M 96.246094 123.515625 L 114.859375 36.464844 C 115.148438 34.988281 114.515625 33.484375 113.257812 32.660156 C 112 31.835938 110.367188 31.859375 109.132812 32.714844 L 61.457031 69.28125 C 59.007812 71.160156 57.578125 74.070312 57.589844 77.15625 L 57.589844 169.929688 C 57.542969 173.054688 58.976562 176.015625 61.453125 177.917969 L 108.902344 214.371094 C 110.136719 215.226562 111.769531 215.246094 113.027344 214.421875 C 114.285156 213.597656 114.917969 212.09375 114.628906 210.621094 Z M 96.246094 123.515625 "/>
</g>
</svg>
